packages/foundations/assets/icons/functional/images/business & payment/sepa_12.svg

<svg width="12" height="12" viewBox="0 0 12 12" fill="none" xmlns="http://www.w3.org/2000/svg">
<g clip-path="url(#clip0_231_128)">
<path fill-rule="evenodd" clip-rule="evenodd" d="M7.10872 7.798C7.68572 7.798 8.01072 8.123 8.01072 8.731C8.01072 9.306 7.72572 9.619 7.20372 9.652L7.10872 9.655H6.72972V10.498C6.72974 10.568 6.70525 10.6359 6.66051 10.6898C6.61576 10.7436 6.55357 10.7802 6.48472 10.793L6.43072 10.798C6.36054 10.798 6.29259 10.7733 6.23869 10.7284C6.18479 10.6835 6.14835 10.621 6.13572 10.552L6.13072 10.498V8.098C6.13074 8.02782 6.15537 7.95987 6.20032 7.90597C6.24526 7.85207 6.30769 7.81563 6.37672 7.803L6.43072 7.798H7.10872ZM2.76072 7.798C3.02372 7.798 3.27672 7.858 3.48572 7.958C3.55355 7.99469 3.60464 8.05609 3.62839 8.12946C3.65215 8.20283 3.64673 8.28253 3.61328 8.35201C3.57982 8.42149 3.5209 8.47542 3.44873 8.50261C3.37657 8.52979 3.2967 8.52814 3.22572 8.498C3.08 8.43075 2.9212 8.3966 2.76072 8.398C2.60472 8.398 2.55672 8.441 2.55672 8.538C2.55672 8.651 2.62672 8.741 2.85672 8.903L3.02172 9.014C3.54572 9.355 3.74372 9.558 3.74372 9.976C3.74372 10.462 3.33972 10.798 2.80372 10.798C2.51872 10.798 2.23372 10.718 2.01072 10.585C1.97529 10.5657 1.94412 10.5394 1.91908 10.5077C1.89404 10.4761 1.87564 10.4397 1.865 10.4008C1.85435 10.3618 1.85167 10.3212 1.85711 10.2812C1.86256 10.2412 1.87601 10.2027 1.89668 10.168C1.91735 10.1333 1.9448 10.1032 1.97739 10.0794C2.00998 10.0556 2.04704 10.0386 2.08635 10.0294C2.12566 10.0203 2.16641 10.0192 2.20617 10.0261C2.24593 10.0331 2.28387 10.048 2.31772 10.07C2.44772 10.148 2.62772 10.198 2.80372 10.198C3.02972 10.198 3.14372 10.104 3.14372 9.976C3.14372 9.868 3.07572 9.78 2.84972 9.621L2.68672 9.511C2.15672 9.167 1.95672 8.961 1.95672 8.538C1.95672 8.093 2.28772 7.798 2.76072 7.798ZM5.52472 7.798C5.5995 7.79813 5.67153 7.82619 5.7267 7.87667C5.78187 7.92715 5.81619 7.99641 5.82295 8.07088C5.82971 8.14535 5.80841 8.21966 5.76323 8.27925C5.71806 8.33884 5.65225 8.3794 5.57872 8.393L5.52472 8.398H4.59672V8.94H5.30172C5.37753 8.93861 5.45106 8.96599 5.5075 9.01661C5.56395 9.06724 5.59913 9.13736 5.60597 9.21288C5.61282 9.28839 5.59081 9.3637 5.54438 9.42364C5.49795 9.48359 5.43055 9.52373 5.35572 9.536L5.30172 9.541H4.59672V10.198H5.57672C5.64707 10.1978 5.71526 10.2223 5.76937 10.2673C5.82347 10.3122 5.86006 10.3748 5.87272 10.444L5.87672 10.498C5.8767 10.5682 5.85207 10.6361 5.80712 10.69C5.76218 10.7439 5.69975 10.7804 5.63072 10.793L5.57672 10.798H4.29672C4.22654 10.798 4.15859 10.7733 4.10469 10.7284C4.05079 10.6835 4.01435 10.621 4.00172 10.552L3.99672 10.498V8.098C3.99674 8.02782 4.02137 7.95987 4.06632 7.90597C4.11126 7.85207 4.17369 7.81563 4.24272 7.803L4.29672 7.798H5.52472ZM9.31072 7.953L9.33172 8.003L10.1287 10.403C10.1537 10.4744 10.1508 10.5525 10.1206 10.6218C10.0904 10.6911 10.0351 10.7465 9.96589 10.7768C9.89664 10.8072 9.81849 10.8102 9.74707 10.7854C9.67566 10.7606 9.61625 10.7097 9.58072 10.643L9.55872 10.593L9.34872 9.958H8.66172L8.41772 10.604C8.39305 10.6699 8.34598 10.7251 8.28473 10.7599C8.22349 10.7946 8.15198 10.8067 8.08272 10.794L8.03072 10.779C7.96496 10.7542 7.91001 10.707 7.87547 10.6458C7.84093 10.5845 7.82898 10.5131 7.84172 10.444L7.85672 10.392L8.76672 7.992C8.78686 7.93821 8.82202 7.89134 8.86802 7.85695C8.91402 7.82256 8.96892 7.8021 9.02621 7.79799C9.0835 7.79388 9.14076 7.80631 9.19119 7.83378C9.24162 7.86126 9.28311 7.90264 9.31072 7.953ZM7.10872 8.398H6.72972V9.055H7.10972C7.36172 9.055 7.40972 9.007 7.40972 8.731C7.40972 8.477 7.36272 8.409 7.16672 8.399L7.10872 8.398ZM8.39672 1.198C9.05272 1.198 9.59672 1.742 9.59672 2.398V5.386C9.59672 6.042 9.05272 6.586 8.39672 6.586H3.60472C2.94872 6.586 2.40472 6.042 2.40472 5.386V2.398C2.40472 1.742 2.94872 1.198 3.60472 1.198H8.39672ZM8.40472 2.398H3.60472V5.398H8.40472V2.398ZM6.60472 4.198V4.798H4.20472V4.198H6.60472Z" fill="#1A1C1F"/>
</g>
<defs>
<clipPath id="clip0_231_128">
<rect width="12" height="12" fill="white"/>
</clipPath>
</defs>
</svg>

<svg xmlns="http://www.w3.org/2000/svg" width="12" height="12" fill="none"><g clip-path="url(#a)"><path fill="#1A1C1F" fill-rule="evenodd" d="M7.109 7.798c.577 0 .902.325.902.933 0 .575-.285.888-.807.921l-.095.003h-.38v.843a.3.3 0 0 1-.244.295l-.054.005a.3.3 0 0 1-.295-.246l-.005-.054v-2.4a.3.3 0 0 1 .246-.295l.054-.005zm-4.348 0c.263 0 .516.06.725.16a.3.3 0 0 1-.26.54 1.1 1.1 0 0 0-.465-.1c-.156 0-.204.043-.204.14 0 .113.07.203.3.365l.165.111c.524.341.722.544.722.962 0 .486-.404.822-.94.822-.285 0-.57-.08-.793-.213a.3.3 0 0 1 .075-.556.3.3 0 0 1 .232.041c.13.078.31.128.486.128.226 0 .34-.094.34-.222 0-.108-.068-.196-.294-.355l-.163-.11c-.53-.344-.73-.55-.73-.973 0-.445.33-.74.804-.74m2.764 0a.3.3 0 0 1 .054.595l-.054.005h-.928v.542h.705a.3.3 0 0 1 .054.596l-.054.005h-.705v.657h.98a.3.3 0 0 1 .296.246l.004.054a.3.3 0 0 1-.246.295l-.054.005h-1.28a.3.3 0 0 1-.295-.246l-.005-.054v-2.4a.3.3 0 0 1 .246-.295l.054-.005zm3.786.155.02.05.798 2.4a.3.3 0 0 1-.548.24l-.022-.05-.21-.635h-.687l-.244.646a.3.3 0 0 1-.335.19l-.052-.015a.3.3 0 0 1-.19-.335l.016-.052.91-2.4a.3.3 0 0 1 .544-.039m-2.202.445h-.38v.657h.38c.253 0 .3-.048.3-.324 0-.254-.046-.322-.242-.332zm1.288-7.2c.656 0 1.2.544 1.2 1.2v2.988c0 .656-.544 1.2-1.2 1.2H3.605c-.656 0-1.2-.544-1.2-1.2V2.398c0-.656.544-1.2 1.2-1.2zm.008 1.2h-4.8v3h4.8zm-1.8 1.8v.6h-2.4v-.6z" clip-rule="evenodd"/></g><defs><clipPath id="a"><path fill="#fff" d="M0 0h12v12H0z"/></clipPath></defs></svg>
